X:308
T:Vals efter Anders Larsson
T:(SvL Halland 308)
R:Vals
S:Anders Nilsson
S:Anders Larsson
O:Eldsberga och Skummeslöv, Halland
B:Svenska Låtar Halland
M:3/4
L:1/8
K:D
A2 d2 d2|d2 (fa) fd|d2 c2 c2|c2 eg ec|
A2 d2 d2|d2 (fa) fd|dc eg ec|d2 z2 z2:|
|:a4 g2|fg af df|ef ge ce|de fd A2|
a4 g2|fg af df|ef ge ce|d2 z2 z2:|

